X:159
T:My false love is fled - Akerman's
%%VWML:SBG-1-2-559-0
F:http://www.vwml.org/record/SBG/1/2/559
Z:Original Sibelius transcriptions by M. & S. Graebe
M:4/4
I:linebreak $
K:G
V:1 treble nm="P1"
V:1
 E/ | E B A B | G3/2 F/ E3/2 d/ | e f g f | e d/>e/ B3/2 d/ |$ e f g f | e d/>e/ B3/2 A/ | %7
 G A/>A/ B G | E E E2 | %9

